X: 34187
T: Reel Of Mullinavat, The
R: reel
M: 4/4
K: Edorian
|:geed edBA|GBAG EDB,D|GE~E2 G2Bd|eBBA Bdef|
g2fg edBA|GBAG EDB,D|GE~E2 ~G3A|Beed e3f:|
gB~B2 gbag|afde fgaf|gB~B2 gbag|agfg e2ef|
gB~B2 gbag|afde fgaf|bgaf gfed|Bgfg e3f|
gB~B2 gbag|afde fgaf|gB~B2 gbag|agfg e2ef|
g2gf gbag|afde fgaf|bgaf gfed|Bgfg e3f||

